T: Sourgrass And Granite
M: 3/4
L: 1/8
K: Dmaj
FE|:"D"DA, DF Ad|"A"c3d eg|"D"f2 d2 A2|"G"B3G D2|
"G"B2Bc d2|"D"F3G A2|1 "Em"Bc d2 F2|"A"E3G FE:|
|2 "Em"Bc d2 "A7"E F/E/|"D"D3c de||
"Bm"fB Bc df|"A"eA AB ce|"G"d2 c2 B2|"D"A3 FD2|
"G"B2 BA FA|"D"D2DF Ad|1 "E9"f2 fe df|"A"e3c "D"de:|
|2 "E9"f2 fe "A7"dc|"D"d6||
</html>
